!!!COM: oasis
!!!OTL: dont-look-back-in-anger
!!!RNB: hooktheoryid: Ld_gwyyAoGV
**kern	**text
*clefG2	*
*k[]	*
*M4/4	*
=1	=1
1g	C
=2	=2
4f	G
4g	.
4f	.
[4e	.
=3	=3
2.e]	Am
4e	.
=4	=4
4d	E
4e	.
4d	.
[4c	.
=5	=5
4c]	F
4d	.
4e	.
[4d	.
=6	=6
4d]	G
4c	.
4e	.
[4c	.
=7	=7
8c]	C
8A	.
2G	.
4r	.
=8	=8
[2rL	Am
4r]J	G
4G	.
=9	=9
1g	C
=10	=10
2f	G
4g	.
[4e	.
=11	=11
2.e]	Am
4r	.
=12	=12
4.r	E
8e	.
4a	.
8e	.
[8g	.
=13	=13
4g]	F
8e	.
4d	.
4c	.
8r	.
=14	=14
4.r	G
8c	.
4d	.
8e	.
8c	.
=15	=15
1r	.
*-	*-